!!!COM: Felix Mendelssohn
!!!CNT: Deutsch
!!!TXO: Deutsch
!!!OTL: Morgenlied
!!!LYR: Voss
!!!OPS: Op. 86
!!!ONM: No. 2
!!!ENC: Daniel Alt & Leigh VanHandel
!!!YOR: Sa2mmtliche Lieder fu2r eine Singstimme 
!!!YOR: Neu revidirt von Dr. L. Benda, Ausgabe fu2r mittlere Stimme
!!!YOR: Braunschweig. Henry Litolff's Verlag. Boston and New York: Arthur P. Schmidt.
!!!ODT: 1850/
!!NB: Date is publication date, not composition date
**kern	**silbe
*staff1	*
=1-	=1
*clefG2	*
*k[]	*
*met(C)	*
*M4/4	*
1r	.
=2	=2
2r	.
4r	.
{4g	{Er-
=3	=3
4cc	-wacht
4e	in
4f	neu-
4g-	-er
=4	=4
2g-	Sta23-
4gn	-ke
4a-	be-
=5	=5
4a	-gru2ss’
4a	cih,
4.dd	Gott,
8cc	dein
=6	=6
2cc	Licht,
4b}	|}
{4b	{und
=7	=7
4cc	wend’
4cc	auf
4b	dei-
4a	-ne
=8	=8
2g	Wer-
4g-	-ke
8ee	Mein
8dd	|
=9	=9
4.dd	fro-
8g	-hes
4b	An-
4a	-ge-
=10	=10
2g}	-sicht.}
4r	.
{4g	{Wie
=11	=11
4cc	herr-
4b	-lich
4a	strahlt
4g	die
=12	=12
4ff	Sonn’
4ee	em-
4dd	-por
8cc	und
8b	|
=13	=13
4.cc	weckt
8cc	des
8dd	Le-
8cc	|
8b	-bens
8a	|
=14	=14
4g	lau-
2ee	|
4dd	-ten
=15	=15
2.cc}	Chor!}
{4cc	{o
=16	=16
4ff	Gott,
4ee	in
4dd	dei-
4cc	-nem
=17	=17
4b	Son-
4a	-nens
4g	schein,
4f	wie
=18	=18
4e	herr-
8f	-lich
8g	|
4a	ist’s
8b	le-
8cc	|
=19	=19
4g	-ben-
2ee	|
4dd	-dig
=20	=20
2cc}	sein!}
2r	.
==	==
*-	*-

